X: 1
T: Letting The Ranch Go Fallow
M: 6/8
L: 1/8
K: Emin
ABA GAB|dBA GED|EB,B, EFG|FED EFG|
ABA GAB|dBA GED|EB,B, EFG|FED E3|
ABA GAB|dBA GED|EB,B, EFG|FED EFG|
ABA GAB|dBA GED|EB,B, EFG|FED E2 A,||
B,EG B,EG|DFA ABc|Bef edB|BAG FED|
B,EG B,EG|DFA ABc|Bef edB|AFD E2 A,|
B,EG B,EG|DFA ABc|Bef edB|BAG FED|
B,EG B,EG|DFA ABc|Bgf efd|BAF EFG||
